X: 05077
T: The ROAD BACK HOME
C: Bob McQuillen 1 June 80
B: Bob's Note Book 5 #77
%R: march, reel
Z: 2021 John Chambers <jc:trillian.mit.edu>
M: C	% The book has no time signature
L: 1/8
K: D
A2 \
| d2d2 fedc | d2df a3g | f2a2 gfed | f4 e2AA |\
| d2d2 fedc | d2df A2FA | B2cd A2f2 | e4 d2 |]
[| fg \
| a2f2 gfed | c2e2 A2fg | a2f2 gab2 | e6 fg |\
| a2f2 g2fe | d2f2 A2FA | B2cd e2f2 | d6 |]
%%begintext align
%% After you've taken the Road
%% to the Isles, take this one!
%%endtext

%%sep 1 1 500

%%sep 1 1 500

